other/paybyphone.svg

<svg viewBox="0 0 48 48" xmlns="http://www.w3.org/2000/svg">
    <style>
        .a{fill:none;stroke:#FFFFFF;stroke-linecap:round;stroke-linejoin:round}
    </style>
    <path class="a" d="M26.4042549,29.3404255h-4.8085098c-1.621603,0-2.9361706-1.3145676-2.9361706-2.9361706v-4.8085098 c0-1.621603,1.3145676-2.9361706,2.9361706-2.9361706h4.8085098c1.621603,0,2.9361706,1.3145676,2.9361706,2.9361706v4.8085098 C29.3404255,28.0258579,28.0258579,29.3404255,26.4042549,29.3404255z"/>
    <path class="a" d="M13.2446804,29.3404255H8.4361706C6.814568,29.3404255,5.5,28.0258579,5.5,26.4042549v-4.8085098 c0-1.621603,1.314568-2.9361706,2.9361706-2.9361706h4.8085098c1.6216021,0,2.9361706,1.3145676,2.9361706,2.9361706v4.8085098 C16.180851,28.0258579,14.8662825,29.3404255,13.2446804,29.3404255z"/>
    <path class="a" d="M39.5638313,29.3404255h-4.8085136c-1.6216011,0-2.9361687-1.3145676-2.9361687-2.9361706v-4.8085098 c0-1.621603,1.3145676-2.9361706,2.9361687-2.9361706h4.8085136c1.6216011,0,2.9361687,1.3145676,2.9361687,2.9361706v4.8085098 C42.5,28.0258579,41.1854324,29.3404255,39.5638313,29.3404255z"/>
    <path class="a" d="M26.4042549,16.180851h-4.8085098c-1.621603,0-2.9361706-1.3145685-2.9361706-2.9361706V8.4361706 C18.6595745,6.814568,19.9741421,5.5,21.5957451,5.5h4.8085098c1.621603,0,2.9361706,1.314568,2.9361706,2.9361706v4.8085098 C29.3404255,14.8662825,28.0258579,16.180851,26.4042549,16.180851z"/>
    <path class="a" d="M13.2446804,16.180851H8.4361706C6.814568,16.180851,5.5,14.8662825,5.5,13.2446804V8.4361706 C5.5,6.814568,6.814568,5.5,8.4361706,5.5h4.8085098c1.6216021,0,2.9361706,1.314568,2.9361706,2.9361706v4.8085098 C16.180851,14.8662825,14.8662825,16.180851,13.2446804,16.180851z"/>
    <path class="a" d="M39.5638313,16.180851h-4.8085136c-1.6216011,0-2.9361687-1.3145685-2.9361687-2.9361706V8.4361706 C31.819149,6.814568,33.1337166,5.5,34.7553177,5.5h4.8085136C41.1854324,5.5,42.5,6.814568,42.5,8.4361706v4.8085098 C42.5,14.8662825,41.1854324,16.180851,39.5638313,16.180851z"/>
    <path class="a" d="M26.4042549,42.5h-4.8085098c-1.621603,0-2.9361706-1.3145676-2.9361706-2.9361687v-4.8085136 c0-1.6216011,1.3145676-2.9361687,2.9361706-2.9361687h4.8085098c1.621603,0,2.9361706,1.3145676,2.9361706,2.9361687v4.8085136 C29.3404255,41.1854324,28.0258579,42.5,26.4042549,42.5z"/>
    <path class="a" d="M13.2446804,42.5H8.4361706C6.814568,42.5,5.5,41.1854324,5.5,39.5638313v-4.8085136 c0-1.6216011,1.314568-2.9361687,2.9361706-2.9361687h4.8085098c1.6216021,0,2.9361706,1.3145676,2.9361706,2.9361687v4.8085136 C16.180851,41.1854324,14.8662825,42.5,13.2446804,42.5z"/>
    <path class="a" d="M39.5638313,42.5h-4.8085136c-1.6216011,0-2.9361687-1.3145676-2.9361687-2.9361687v-4.8085136 c0-1.6216011,1.3145676-2.9361687,2.9361687-2.9361687h4.8085136c1.6216011,0,2.9361687,1.3145676,2.9361687,2.9361687v4.8085136 C42.5,41.1854324,41.1854324,42.5,39.5638313,42.5z"/>
</svg>

<?xml version="1.0" encoding="UTF-8"?><svg id="b" xmlns="http://www.w3.org/2000/svg" viewBox="0 0 48 48"><defs><style>.c{fill:none;stroke:#fff;stroke-linecap:round;stroke-linejoin:round;}</style></defs><path class="c" d="m26.4043,29.3404h-4.8085c-1.6216,0-2.9362-1.3146-2.9362-2.9362v-4.8085c0-1.6216,1.3146-2.9362,2.9362-2.9362h4.8085c1.6216,0,2.9362,1.3146,2.9362,2.9362v4.8085c0,1.6216-1.3146,2.9362-2.9362,2.9362Z"/><path class="c" d="m13.2447,29.3404h-4.8085c-1.6216,0-2.9362-1.3146-2.9362-2.9362v-4.8085c0-1.6216,1.3146-2.9362,2.9362-2.9362h4.8085c1.6216,0,2.9362,1.3146,2.9362,2.9362v4.8085c0,1.6216-1.3146,2.9362-2.9362,2.9362Z"/><path class="c" d="m39.5638,29.3404h-4.8085c-1.6216,0-2.9362-1.3146-2.9362-2.9362v-4.8085c0-1.6216,1.3146-2.9362,2.9362-2.9362h4.8085c1.6216,0,2.9362,1.3146,2.9362,2.9362v4.8085c0,1.6216-1.3146,2.9362-2.9362,2.9362Z"/><path class="c" d="m26.4043,16.1809h-4.8085c-1.6216,0-2.9362-1.3146-2.9362-2.9362v-4.8085c0-1.6216,1.3146-2.9362,2.9362-2.9362h4.8085c1.6216,0,2.9362,1.3146,2.9362,2.9362v4.8085c0,1.6216-1.3146,2.9362-2.9362,2.9362Z"/><path class="c" d="m13.2447,16.1809h-4.8085c-1.6216,0-2.9362-1.3146-2.9362-2.9362v-4.8085c0-1.6216,1.3146-2.9362,2.9362-2.9362h4.8085c1.6216,0,2.9362,1.3146,2.9362,2.9362v4.8085c0,1.6216-1.3146,2.9362-2.9362,2.9362Z"/><path class="c" d="m39.5638,16.1809h-4.8085c-1.6216,0-2.9362-1.3146-2.9362-2.9362v-4.8085c0-1.6216,1.3146-2.9362,2.9362-2.9362h4.8085c1.6216,0,2.9362,1.3146,2.9362,2.9362v4.8085c0,1.6216-1.3146,2.9362-2.9362,2.9362Z"/><path class="c" d="m26.4043,42.5h-4.8085c-1.6216,0-2.9362-1.3146-2.9362-2.9362v-4.8085c0-1.6216,1.3146-2.9362,2.9362-2.9362h4.8085c1.6216,0,2.9362,1.3146,2.9362,2.9362v4.8085c0,1.6216-1.3146,2.9362-2.9362,2.9362Z"/><path class="c" d="m13.2447,42.5h-4.8085c-1.6216,0-2.9362-1.3146-2.9362-2.9362v-4.8085c0-1.6216,1.3146-2.9362,2.9362-2.9362h4.8085c1.6216,0,2.9362,1.3146,2.9362,2.9362v4.8085c0,1.6216-1.3146,2.9362-2.9362,2.9362Z"/><path class="c" d="m39.5638,42.5h-4.8085c-1.6216,0-2.9362-1.3146-2.9362-2.9362v-4.8085c0-1.6216,1.3146-2.9362,2.9362-2.9362h4.8085c1.6216,0,2.9362,1.3146,2.9362,2.9362v4.8085c0,1.6216-1.3146,2.9362-2.9362,2.9362Z"/></svg>
